X:8468
%17732
T:Tribute to Coleman, A
T:In Memory of Coleman
R:Reel
C:Ed Reavy
S:as played by fiddler Martin Dowling
N:transcribed by Alan Ng. Slightly different from George Keith's abc taken directly from Reavy book, where it's titled "In Memory of Coleman."
Z:id:ng-reels-11 transcribed on Aug. 23, 1996 from Aug. 17 tape of Martin Dowling by Alan Ng agng@students.wisc.edu
M:C|
K:Am
E:10
\medskip
G,|E,A,CE {E}DB,A,G,|E,G, ~G,2 A,G,E,G,|A,B,CD EGAB|\
cA BG EA{B}AB|cA BG {B}AGED|*
E:12
(3CDE CA, G,E,D,E,|G,A,CE ~D3 D|ECDB, CA,A,G,|\
E,A,CE {E}DB,A,G,|E,G, ~G,2 A,G,E,G,|*
E:11
A,B,CD EGAB|cABG ~A2 AB|cA BG {B}AGED|\
(3CDE CA, {A,}G,E,D,E,|G,A,CE D2CD|*
E:10
ECDB, CA,A,B,||C2 GC ACGC|{E}CEGE {E}DB,G,B,|\
C2 GC ACGC|G,A,B,D CA,A,B,|C2 GC E,CGC|\
E,CGC {E}DB,G,B,|A,B,CD EcBA|GE DB, CA,A,B,|\
C2 GC ABGE|CEGE {E}DB,G,B,|\
C2 ~C2 GC ~C2|*
E:11
{E}CB,G,A, B,A,A,B,|C2 GC G,CGC|\
E,CGC {E}DB,G,B,|A,B,CD EcBA|GEDB, CA,A,
%Error : Bar 32 is 7/8 not 2/2
|]**
\bigskip


